src/images/networks/bsc.svg

<svg width="96" height="96" viewBox="0 0 96 96" fill="none" xmlns="http://www.w3.org/2000/svg">
<circle cx="48" cy="48" r="48" fill="#F0B90B"/>
<path d="M30.9008 25.9057L47.8088 16.0637L64.7169 25.9057L58.5007 29.5416L47.8088 23.3355L37.117 29.5416L30.9008 25.9057ZM64.7169 38.3179L58.5007 34.682L47.8088 40.8881L37.117 34.682L30.9008 38.3179V45.5897L41.5926 51.7958V64.2079L47.8088 67.8438L54.0251 64.2079V51.7958L64.7169 45.5897V38.3179ZM64.7169 58.0018V50.7301L58.5007 54.366V61.6377L64.7169 58.0018ZM69.1305 60.572L58.4386 66.7781V74.0499L75.3467 64.2079V44.524L69.1305 48.1599V60.572ZM62.9143 32.1118L69.1305 35.7477V43.0195L75.3467 39.3836V32.1118L69.1305 28.4759L62.9143 32.1118ZM41.5926 69.411V76.6828L47.8088 80.3187L54.0251 76.6828V69.411L47.8088 73.0469L41.5926 69.411ZM30.9008 58.0018L37.117 61.6377V54.366L30.9008 50.7301V58.0018ZM41.5926 32.1118L47.8088 35.7477L54.0251 32.1118L47.8088 28.4759L41.5926 32.1118ZM26.4872 35.7477L32.7034 32.1118L26.4872 28.4759L20.271 32.1118V39.3836L26.4872 43.0195V35.7477ZM26.4872 48.1599L20.271 44.524V64.2079L37.1791 74.0499V66.7781L26.4872 60.572V48.1599Z" fill="white"/>
</svg>

<svg xmlns="http://www.w3.org/2000/svg" viewBox="0 0 96 96"><circle cx="48" cy="48" r="48" fill="#F0B90B" class="bg"/><path fill="#fff" d="m30.9 25.906 16.909-9.842 16.908 9.842-6.216 3.636-10.692-6.207-10.692 6.207-6.216-3.636Zm33.817 12.412L58.5 34.682l-10.692 6.206-10.692-6.206-6.216 3.636v7.272l10.692 6.206v12.412l6.216 3.636 6.216-3.636V51.796l10.692-6.206v-7.272Zm0 19.684V50.73L58.5 54.366v7.272l6.216-3.636Zm4.413 2.57-10.69 6.206v7.272l16.908-9.842V44.524L69.13 48.16v12.412Zm-6.216-28.46 6.216 3.636v7.272l6.217-3.636v-7.272l-6.216-3.636-6.217 3.636ZM41.593 69.41v7.272l6.216 3.636 6.216-3.636V69.41l-6.216 3.636-6.216-3.636ZM30.9 58.001l6.216 3.637v-7.272L30.9 50.73v7.272Zm10.692-25.89 6.216 3.637 6.216-3.636-6.216-3.636-6.216 3.636Zm-15.106 3.637 6.216-3.636-6.216-3.636-6.216 3.636v7.272l6.216 3.636v-7.272Zm0 12.412-6.216-3.636v19.684l16.908 9.842v-7.272l-10.692-6.206V48.16Z" class="fg"/></svg>
